X:349
T:El Perlindango
R:Danza
C:Tradicional
S:Msica Tradicional Asturiana, (C) Tello & Tito. Asturies, 2001.
S:http://pagina.de/MusTradAst <telloytito@asturies.org>
N:D'ente les xirandiyes, El Perlindango ye una pieza esclusiva de Cuideiru.
N:Baillbenlu nami les muyeres vieyes qu'acompandose de coples picarones, diben faciendo'l xiru selemente pa la mandrecha fasta llegar al estribillu, momentu nel que ximelgaben con remangu'l mandil o perlindango.
A:Asturies
O:Cuideiru
Z:ByD IDEA
M:2/4
L:1/8
Q:1/4=112
K:Dm
|A3/2A/ AA|d2 A2-|A2 z2|
|d3/2d/ dc|A2 G2|A G3-|G2 z2|cc cB|
M:3/4
|A2 F2 GF|GF E2 GF|GF E4|z6|z6|A4 A2|G4 E2|F2 D4|
W:Probes mariirus,
W:tristes y aflixidos:
W:las vuestras muyeres,
W:con otros maridus,
W:las vuestras muyeres,
W:con otros maridus.
W:
W:Perlindango, dango,
W:perlindango, dango, dingo,
W:ese perlindango, dango,
W:traxolo'l mio Mingo. (Pie)
W:
W:Unas colus curas,
W:otras colus frailes
W:y las ms hermorsas,
W:colus capellanes,
W:y las ms hermosas,
W:colus capellanes.
W:
W:Pie.
W:
